<?xml version="1.0" encoding="UTF-8"?>
<map version="1.10" tiledversion="1.12.2" orientation="orthogonal" renderorder="right-down" width="35" height="18" tilewidth="16" tileheight="16" infinite="0" nextlayerid="2" nextobjectid="1">
 <tileset firstgid="1" source="../images/blocks4.tsx"/>
 <layer id="1" name="Capa de patrones 1" width="35" height="18">
  <data encoding="csv">
27,28,28,28,28,28,28,28,28,28,28,28,28,28,28,28,28,28,28,28,28,28,28,28,28,28,28,28,28,28,28,28,28,28,29,
35,3,3,3,3,3,3,3,3,3,3,3,3,3,3,3,3,3,3,3,3,3,3,3,11,3,3,3,3,3,3,3,3,3,35,
35,3,3,3,3,3,3,3,3,3,3,3,3,3,3,3,3,3,3,3,3,3,3,3,11,3,3,3,3,3,3,3,3,4,35,
35,3,3,3,3,3,3,3,3,3,3,3,3,3,3,3,3,3,3,3,3,3,3,3,11,1,3,3,9,25,25,25,25,26,35,
35,3,9,25,25,25,25,26,3,3,3,3,2,2,2,2,2,3,3,3,3,3,3,3,11,3,3,3,3,3,3,3,3,3,35,
35,3,3,3,3,3,3,3,3,3,3,3,2,2,2,2,2,3,3,3,3,3,3,3,11,3,3,3,3,11,3,3,3,3,35,
35,3,3,3,3,3,3,3,3,3,3,3,3,3,11,3,3,3,3,3,3,3,3,3,22,3,1,3,3,21,3,3,3,3,35,
35,3,3,3,3,3,3,3,3,3,3,3,3,3,21,3,3,3,3,3,3,12,13,13,13,14,3,3,3,21,1,3,3,1,35,
35,3,3,1,1,3,3,3,9,25,25,25,25,25,10,3,3,1,1,1,1,19,15,15,15,5,3,3,3,21,3,3,3,3,35,
35,3,3,3,3,3,3,3,3,3,3,2,3,3,3,3,3,3,3,3,3,19,15,15,15,5,3,9,25,10,3,3,3,3,35,
35,3,3,3,3,3,3,3,3,3,3,2,3,3,3,3,3,3,3,3,3,19,15,15,15,5,3,3,3,3,3,3,3,3,35,
35,3,3,3,3,1,1,3,3,3,3,2,3,3,3,3,3,3,3,3,3,18,17,17,17,6,3,3,3,3,3,9,26,3,35,
35,9,25,25,25,25,25,25,26,3,3,3,3,3,3,3,1,3,3,3,1,3,3,3,3,3,3,3,3,3,3,3,3,3,35,
35,3,3,3,3,3,3,3,3,3,3,3,3,3,3,3,3,3,3,1,2,1,3,3,9,25,25,25,25,26,3,3,3,1,35,
35,3,3,3,3,3,3,3,9,25,25,25,25,25,26,3,3,3,3,3,3,3,3,3,3,3,3,3,3,3,3,3,1,1,35,
35,3,3,3,3,3,3,3,3,3,3,3,3,3,3,3,3,3,3,3,3,3,3,3,3,3,3,3,3,3,3,1,3,1,35,
35,3,3,3,3,3,3,3,3,3,3,3,3,3,3,3,3,3,3,3,3,3,3,3,3,3,3,3,3,3,1,3,3,1,35,
35,20,20,20,20,20,20,20,20,20,20,20,20,20,20,20,20,20,20,20,20,20,20,20,20,20,20,20,20,20,20,20,20,20,35
</data>
 </layer>
</map>
